build/images/badges_privat4.svg

<?xml version="1.0" encoding="UTF-8"?>
<svg width="39px" height="32px" viewBox="0 0 39 32" version="1.1" xmlns="http://www.w3.org/2000/svg" xmlns:xlink="http://www.w3.org/1999/xlink">
    <!-- Generator: sketchtool 63.1 (101010) - https://sketch.com -->
    <title>B71EFC79-B859-40A4-B528-23B6FBF86395</title>
    <desc>Created with sketchtool.</desc>
    <g id="Page-1" stroke="none" stroke-width="1" fill="none" fill-rule="evenodd">
        <g id="Kupa-shop---elements" transform="translate(-190.000000, -404.000000)" fill-rule="nonzero">
            <g id="badges/privat4" transform="translate(190.000000, 404.000000)">
                <g id="diagram" transform="translate(16.000000, 16.000000) scale(-1, 1) translate(-16.000000, -16.000000) ">
                    <path d="M16.9760957,17.4785015 C15.5876261,17.4764841 14.4620478,16.3525107 14.458013,14.9639989 L14.423087,3 C6.45048261,3.04160996 0,9.5168766 0,17.4995587 C0,25.5079633 6.49183913,32 14.5,32 C22.5081609,32 29,25.5079633 29,17.4995587 C29,17.4984239 29,17.497163 29,17.4960281 L16.9760957,17.4785015 Z" id="Path" fill="#F4D118"></path>
                    <path d="M31.99826,14.1020002 C31.5115778,6.51085976 25.4509921,0.44564865 17.8881363,0.00144563113 C17.8717959,0.000525684046 17.8554555,0 17.8392458,0 C17.6255135,0 17.4192324,0.0821381322 17.2630183,0.230643875 C17.0949083,0.390320404 16.9993497,0.612947598 17,0.845431368 L17.0410504,14.9793669 L31.1603248,15 C31.1607169,15 31.1611091,15 31.1615013,15 C31.3931427,15 31.6144569,14.9036684 31.7730241,14.733741 C31.9318527,14.5635508 32.0131625,14.3348783 31.99826,14.1020002 Z" id="Path" fill="#58AE00"></path>
                </g>
                <path d="M31.5403394,11.494 L36.392,11.494 L36.392,18.838 L37.85,18.838 L37.85,22.232 L36.392,22.232 L36.392,24.5 L32.512,24.5 L32.512,22.232 L26.698,22.232 L26.698,19.5959687 L31.5403394,11.494 Z M32.512,16.3084297 L31.0519171,18.838 L32.512,18.838 L32.512,16.3084297 Z" id="4" stroke="#FFFFFF" fill="#333333"></path>
            </g>
        </g>
    </g>
</svg>

<svg width="39" height="32" xmlns="http://www.w3.org/2000/svg"><g id="Page-1" stroke="none" stroke-width="1" fill="none" fill-rule="evenodd"><g id="Kupa-shop---elements" transform="translate(-190 -404)" fill-rule="nonzero"><g id="badges/privat4" transform="translate(190 404)"><g id="diagram" transform="matrix(-1 0 0 1 32 0)"><path d="M16.976 17.479a2.522 2.522 0 01-2.518-2.515L14.423 3C6.45 3.042 0 9.517 0 17.5 0 25.508 6.492 32 14.5 32S29 25.508 29 17.5v-.004l-12.024-.017z" id="Path" fill="#F4D118"/><path d="M31.998 14.102C31.512 6.511 25.451.446 17.888.002a.836.836 0 00-.625.23.845.845 0 00-.263.613l.041 14.134 14.12.021a.836.836 0 00.612-.266.846.846 0 00.225-.632z" id="Path" fill="#58AE00"/></g><path d="M31.54 11.494h4.852v7.344h1.458v3.394h-1.458V24.5h-3.88v-2.268h-5.814v-2.636l4.842-8.102zm.972 4.814l-1.46 2.53h1.46v-2.53z" id="4" stroke="#FFF" fill="#333"/></g></g></g></svg>
